local/share/icons/dracula-icons-main/scalable/apps/desktop-environment-lxde.svg

<?xml version="1.0" encoding="UTF-8"?>
<svg xmlns="http://www.w3.org/2000/svg" xmlns:xlink="http://www.w3.org/1999/xlink" width="64" height="64" viewBox="0 0 64 64">
<path fill-rule="nonzero" fill="rgb(13.72549%, 32.156863%, 57.254902%)" fill-opacity="1" d="M 8.378906 1.324219 C 10.953125 1.292969 13.34375 2.648438 14.640625 4.871094 C 15.933594 7.09375 15.933594 9.839844 14.640625 12.0625 C 13.34375 14.285156 10.953125 15.640625 8.378906 15.609375 C 4.46875 15.5625 1.324219 12.378906 1.324219 8.464844 C 1.324219 4.554688 4.46875 1.371094 8.378906 1.324219 Z M 8.378906 1.324219 "/>
<path fill-rule="nonzero" fill="rgb(100%, 100%, 100%)" fill-opacity="1" d="M 10.578125 7.5 C 10.058594 6.898438 9.589844 6.507812 8.898438 7.523438 C 8.484375 8.128906 6.015625 11.589844 5.5625 12.140625 C 5.429688 12.300781 5.351562 12.410156 5.253906 12.476562 C 5.253906 12.257812 6.960938 9.476562 7.433594 8.667969 C 8.011719 7.699219 7.992188 7.757812 7.921875 7.757812 C 7.824219 7.757812 7.628906 7.902344 7.328125 8.234375 C 6.777344 8.835938 5.152344 11.082031 5.039062 11.046875 C 5.078125 10.882812 6.351562 8.875 6.929688 8.042969 C 7.425781 7.328125 7.234375 7.273438 6.949219 7.34375 C 5.734375 7.644531 4.28125 8.363281 4.234375 8.335938 C 4.25 8.300781 9.132812 4.765625 9.785156 4.699219 C 9.859375 4.691406 10.019531 4.550781 10.304688 4.433594 C 10.617188 4.308594 10.824219 4.207031 10.875 4.238281 C 10.648438 4.566406 10.53125 4.632812 10.527344 4.738281 C 10.523438 4.910156 10.464844 5.1875 10.398438 5.277344 C 11.660156 6.140625 12.15625 9.089844 12.515625 11.464844 C 12.597656 12.023438 12.679688 12.449219 12.699219 12.699219 C 12.59375 12.417969 11.585938 8.671875 10.574219 7.5 M 10.574219 7.5 "/>
</svg>

<svg width="64" height="64" version="1.1" viewBox="0 0 16.933 16.933" xmlns="http://www.w3.org/2000/svg">
 <g transform="matrix(1.0385 0 0 1.0385 -.41232 -.32567)" stroke-width=".92729">
  <path d="m8.467 1.588a6.879 6.879 0 1 1 0 13.757 6.879 6.879 0 0 1 0-13.757z" fill="#235292"/>
 </g>
 <path d="M10.578 7.501c-.52-.603-.987-.993-1.679.023-.413.603-2.884 4.066-3.337 4.617-.133.16-.21.27-.31.337 0-.22 1.707-3.003 2.183-3.81.575-.968.557-.912.488-.912-.097 0-.295.148-.596.478-.549.603-2.175 2.847-2.288 2.813.039-.163 1.312-2.172 1.89-3.003.497-.716.307-.772.022-.701-1.216.3-2.67 1.02-2.718.993.018-.037 4.9-3.569 5.552-3.636.076-.009.236-.148.521-.265.31-.125.519-.229.57-.196-.227.327-.345.393-.348.498-.003.172-.062.45-.128.54 1.262.865 1.755 3.813 2.114 6.186.085.562.166.986.186 1.237-.106-.282-1.115-4.03-2.124-5.199m0 0" fill="#fff"/>
</svg>
